X:15
T:Baddeck Gathereing, The
M:6/8
L:1/8
C:"Piper Alex" MacDonald
R:Jig
K:D
A,|"D"DED "A7"FEF|"D"D3 D2 A,|"D"DED "A7"FDF|"D"A3 "D7"ABc|"G"dBd "D7"=c
Ac|!
"G"BGB "D"A2 B|"D"AFA "Bm"d2F |"Em"EFE "A7"EDB,|"D"A,B,D "A7"FEF|
"D"D3 D3 A,|"D"DED "A7"FDF|!"D"A3 "D7"ABc|"G"dBd "D7"=cAc|"G"BGB "D"A2 G
|
"D"FED "A7"A,FE |"D"D3 D2||!
g|"D"f/g/af d2 g|"D"faa "G7"agf|"C"efg =c2 g|"C"egg "A7"gfe|"D"fga d2 g|
!
"D"faa "Bm"agf|"Em" efg "A7"ABc |"D"d3 d2 g|"D"f/g/af d2g|"D"faa "G7"agf
|!
"C"efg =c2g|"C"egg "A7"gfe|"D"fga "A7"ABc| "D"dcd "Bm"A2G|"Em"FED "A7"A,
B,C|"D"D3 D2||
